assets/img/braze_icons/download-01.svg

<svg fill="none" height="24" viewBox="0 0 24 24" width="24" xmlns="http://www.w3.org/2000/svg"><g fill="#801ed7"><path d="m13 3c0-.55228-.4477-1-1-1s-1 .44772-1 1v9.5858l-3.29289-3.29291c-.39053-.39052-1.02369-.39052-1.41422 0-.39052.39053-.39052 1.02371 0 1.41421l5.00001 5c.3905.3905 1.0237.3905 1.4142 0l5-5c.3905-.3905.3905-1.02368 0-1.41421-.3905-.39052-1.0237-.39052-1.4142 0l-3.2929 3.29291z"/><path d="m3 14c.55229 0 1 .4477 1 1v1.2c0 .8566.00078 1.4389.03755 1.889.03582.4384.10075.6626.18044.819.19174.3763.49771.6823.87403.874.1564.0797.3806.1446.81902.1804.45009.0368 1.03238.0376 1.88896.0376h8.4c.8566 0 1.4389-.0008 1.889-.0376.4384-.0358.6626-.1007.819-.1804.3763-.1917.6823-.4977.874-.874.0797-.1564.1446-.3806.1804-.819.0368-.4501.0376-1.0324.0376-1.889v-1.2c0-.5523.4477-1 1-1s1 .4477 1 1v1.2413c0 .805 0 1.4693-.0442 2.0105-.0459.5621-.1445 1.0788-.3918 1.5642-.3835.7526-.9954 1.3645-1.748 1.748-.4854.2473-1.0021.3459-1.5642.3918-.5412.0442-1.2055.0442-2.0105.0442h-8.4826c-.80497 0-1.46933 0-2.01052-.0442-.5621-.0459-1.07881-.1445-1.56414-.3918-.75265-.3835-1.36457-.9954-1.74806-1.748-.2473-.4854-.34586-1.0021-.39179-1.5642-.04421-.5412-.0442-1.2055-.04419-2.0105v-1.2413c0-.5523.44772-1 1-1z"/></g></svg>

<svg width="24" height="24" viewBox="0 0 24 24" fill="none" xmlns="http://www.w3.org/2000/svg">
<path d="M13 3C13 2.44772 12.5523 2 12 2C11.4477 2 11 2.44772 11 3V12.5858L7.70711 9.29289C7.31658 8.90237 6.68342 8.90237 6.29289 9.29289C5.90237 9.68342 5.90237 10.3166 6.29289 10.7071L11.2929 15.7071C11.6834 16.0976 12.3166 16.0976 12.7071 15.7071L17.7071 10.7071C18.0976 10.3166 18.0976 9.68342 17.7071 9.29289C17.3166 8.90237 16.6834 8.90237 16.2929 9.29289L13 12.5858V3Z" fill="#801ED7"/>
<path d="M3 14C3.55229 14 4 14.4477 4 15V16.2C4 17.0566 4.00078 17.6389 4.03755 18.089C4.07337 18.5274 4.1383 18.7516 4.21799 18.908C4.40973 19.2843 4.7157 19.5903 5.09202 19.782C5.24842 19.8617 5.47262 19.9266 5.91104 19.9624C6.36113 19.9992 6.94342 20 7.8 20H16.2C17.0566 20 17.6389 19.9992 18.089 19.9624C18.5274 19.9266 18.7516 19.8617 18.908 19.782C19.2843 19.5903 19.5903 19.2843 19.782 18.908C19.8617 18.7516 19.9266 18.5274 19.9624 18.089C19.9992 17.6389 20 17.0566 20 16.2V15C20 14.4477 20.4477 14 21 14C21.5523 14 22 14.4477 22 15V16.2413C22 17.0463 22 17.7106 21.9558 18.2518C21.9099 18.8139 21.8113 19.3306 21.564 19.816C21.1805 20.5686 20.5686 21.1805 19.816 21.564C19.3306 21.8113 18.8139 21.9099 18.2518 21.9558C17.7106 22 17.0463 22 16.2413 22H7.7587C6.95373 22 6.28937 22 5.74818 21.9558C5.18608 21.9099 4.66937 21.8113 4.18404 21.564C3.43139 21.1805 2.81947 20.5686 2.43598 19.816C2.18868 19.3306 2.09012 18.8139 2.04419 18.2518C1.99998 17.7106 1.99999 17.0463 2 16.2413V15C2 14.4477 2.44772 14 3 14Z" fill="#801ED7"/>
</svg>
